src/48x48/places/folder-gruvbox-original-green-owncloud.svg

<?xml version="1.0" encoding="UTF-8"?>
<svg width="48" height="48" version="1" xmlns="http://www.w3.org/2000/svg">
 <rect x="4" y="17" width="40" height="26" rx="2" ry="2" opacity=".2"/>
 <path d="m4 34c0 1.108 0.892 2 2 2h36c1.108 0 2-0.892 2-2v-22c0-1.108-0.892-2-2-2h-18c-3 0-4-4-7-4h-11c-1.108 0-2 0.892-2 2" fill="#79740e"/>
 <rect x="4" y="15" width="40" height="26" rx="2" ry="2" opacity=".2"/>
 <rect x="6" y="13" width="36" height="16" rx="2" ry="2" fill="#d7d9ae"/>
 <rect x="4" y="16" width="40" height="26" rx="2" ry="2" fill="#b8bb26"/>
 <path d="m22.5 22.5c-1.6598 0-3 1.3402-3 3 0 0.81459 0.3227 1.5518 0.84766 2.0918 0.042949-0.046024 0.088185-0.090383 0.13281-0.13477 0.021542-0.021424 0.042528-0.04342 0.064453-0.064453 0.046334-0.04445 0.092621-0.088197 0.14062-0.13086 0.001744-0.00155 0.004114-0.002359 0.005859-0.003907 0.017994-0.015947 0.036465-0.031183 0.054688-0.046874 0.87479-0.75327 2.0105-1.2109 3.2539-1.2109 0.49183 0 0.96689 0.072023 1.416 0.20508 0.054363-0.22632 0.083984-0.46181 0.083984-0.70508 0-1.6598-1.3402-3-3-3zm-4 2c-0.83139 0-1.5 0.66861-1.5 1.5 0 0.17256 0.028949 0.33818 0.082031 0.49219 0.56979-0.31291 1.223-0.49219 1.918-0.49219 0.012388 0 0.024748-1.13e-4 0.037109 0-0.023381-0.16344-0.037109-0.33021-0.037109-0.5 0-0.30134 0.037276-0.59387 0.10938-0.87305-0.18578-0.082058-0.39244-0.12695-0.60938-0.12695zm8 0c-0.21592 0-0.42605 0.023292-0.62891 0.066406 0.08292 0.29769 0.12891 0.60978 0.12891 0.93359 0 0.30091-0.039591 0.59228-0.11133 0.87109 1.0062 0.41203 1.8492 1.1424 2.4023 2.0664-0.008369-0.013972-0.014936-0.029086-0.023438-0.042969 0.36711-0.17711 0.765-0.29787 1.1836-0.35547 0.031633-0.17498 0.048828-0.35481 0.048828-0.53906 0-1.6598-1.3402-3-3-3zm-7.5 2c-1.936 0-3.5 1.564-3.5 3.5 0 1.2977 0.7035 2.4268 1.75 3.0312 0.34228-0.61443 0.9994-1.0312 1.75-1.0312 0.033776 0 0.068189 2.84e-4 0.10156 0.001953-0.066396-0.32394-0.10156-0.65856-0.10156-1.002 0-1.1375 0.38198-2.187 1.0234-3.0273-0.40358-0.40421-0.70733-0.9074-0.875-1.4688-0.049466-0.002064-0.098456-0.003906-0.14844-0.003906zm5 0c-2.4882 0-4.5 2.0118-4.5 4.5s2.0118 4.5 4.5 4.5 4.5-2.0118 4.5-4.5-2.0118-4.5-4.5-4.5zm6 2c-0.53457 0-1.0414 0.11862-1.4941 0.33203 0.31672 0.6563 0.49414 1.3914 0.49414 2.168 0 1.3668-0.55057 2.6066-1.4414 3.5098 0.6301 0.61292 1.4909 0.99023 2.4414 0.99023 1.936 0 3.5-1.564 3.5-3.5s-1.564-3.5-3.5-3.5zm-14.973 1.0371c-1.4341 0.22613-2.5273 1.4641-2.5273 2.9629 0 1.6598 1.3402 3 3 3 0.64982 0 1.2496-0.20705 1.7402-0.55664-0.15226-0.28167-0.24023-0.6019-0.24023-0.94336 0-0.17361 0.022547-0.34116 0.064453-0.50195-1.2301-0.68239-2.0645-1.9938-2.0645-3.498 0-0.15656 0.009454-0.31116 0.027344-0.46289zm3.9727 2.9629c-0.83139 0-1.5 0.66861-1.5 1.5s0.66861 1.5 1.5 1.5c0.661 0 1.2189-0.42262 1.4199-1.0137-0.53452-0.54883-0.94297-1.2199-1.1816-1.9668-0.077778-0.012335-0.15691-0.019531-0.23828-0.019531zm14.969 0c-0.11588 0.92666-0.54866 1.7566-1.1875 2.375 0.27169 0.37856 0.71488 0.625 1.2188 0.625 0.83139 0 1.5-0.66861 1.5-1.5s-0.66861-1.5-1.5-1.5c-0.010386 0-0.020916-2.08e-4 -0.03125 0z" fill="#333e34"/>
 <path d="m6 6c-1.108 0-2 0.892-2 2v1c0-1.108 0.892-2 2-2h11c3 0 4 4 7 4h18c1.108 0 2 0.892 2 2v-1c0-1.108-0.892-2-2-2h-18c-3 0-4-4-7-4z" fill="#d7d9ae" opacity=".1"/>
</svg>

<svg xmlns="http://www.w3.org/2000/svg" width="48" height="48" version="1">
 <rect style="opacity:0.2" width="40" height="26" x="4" y="17" rx="2" ry="2"/>
 <path style="fill:#79740e" d="M 4,34 C 4,35.108 4.892,36 6,36 H 42 C 43.108,36 44,35.108 44,34 V 12 C 44,10.892 43.108,10 42,10 H 24 C 21,10 20,6 17,6 H 6 C 4.892,6 4,6.892 4,8"/>
 <rect style="opacity:0.2" width="40" height="26" x="4" y="15" rx="2" ry="2"/>
 <rect style="fill:#d7d9ae" width="36" height="16" x="6" y="13" rx="2" ry="2"/>
 <rect style="fill:#b8bb26" width="40" height="26" x="4" y="16" rx="2" ry="2"/>
 <path style="fill:#333e34" d="M 22.5 22.5 C 20.840186 22.5 19.5 23.840186 19.5 25.5 C 19.5 26.314592 19.822704 27.051812 20.347656 27.591797 C 20.390605 27.545773 20.435841 27.501414 20.480469 27.457031 C 20.502011 27.435607 20.522997 27.413611 20.544922 27.392578 C 20.591256 27.348128 20.637543 27.304381 20.685547 27.261719 C 20.687291 27.260169 20.689661 27.25936 20.691406 27.257812 C 20.7094 27.241865 20.727871 27.226629 20.746094 27.210938 C 21.620887 26.457664 22.756611 26 24 26 C 24.491827 26 24.966894 26.072023 25.416016 26.205078 C 25.470379 25.978755 25.5 25.743268 25.5 25.5 C 25.5 23.840186 24.159814 22.5 22.5 22.5 z M 18.5 24.5 C 17.668613 24.5 17 25.168613 17 26 C 17 26.172556 17.028949 26.338178 17.082031 26.492188 C 17.65182 26.179274 18.305068 26 19 26 C 19.012388 26 19.024748 25.999887 19.037109 26 C 19.013728 25.836563 19 25.669791 19 25.5 C 19 25.198664 19.037276 24.906133 19.109375 24.626953 C 18.923593 24.544895 18.716933 24.5 18.5 24.5 z M 26.5 24.5 C 26.284075 24.5 26.073954 24.523292 25.871094 24.566406 C 25.954014 24.864098 26 25.176187 26 25.5 C 26 25.800906 25.960409 26.092277 25.888672 26.371094 C 26.894908 26.783128 27.737823 27.513452 28.291016 28.4375 C 28.282647 28.423528 28.27608 28.408414 28.267578 28.394531 C 28.634686 28.21742 29.032583 28.096661 29.451172 28.039062 C 29.482805 27.864085 29.5 27.684251 29.5 27.5 C 29.5 25.840186 28.159814 24.5 26.5 24.5 z M 19 26.5 C 17.064044 26.5 15.5 28.064044 15.5 30 C 15.5 31.297725 16.203502 32.42683 17.25 33.03125 C 17.592283 32.416819 18.249403 32 19 32 C 19.033776 32 19.068189 32.000284 19.101562 32.001953 C 19.035166 31.678009 19 31.343398 19 31 C 19 29.862511 19.381984 28.813033 20.023438 27.972656 C 19.619854 27.568445 19.316107 27.065258 19.148438 26.503906 C 19.098972 26.501842 19.049982 26.5 19 26.5 z M 24 26.5 C 21.51176 26.5 19.5 28.51176 19.5 31 C 19.5 33.48824 21.51176 35.5 24 35.5 C 26.48824 35.5 28.5 33.48824 28.5 31 C 28.5 28.51176 26.48824 26.5 24 26.5 z M 30 28.5 C 29.46543 28.5 28.958617 28.618625 28.505859 28.832031 C 28.82258 29.488332 29 30.223469 29 31 C 29 32.36685 28.449427 33.606568 27.558594 34.509766 C 28.188699 35.122686 29.049523 35.5 30 35.5 C 31.935956 35.5 33.5 33.935956 33.5 32 C 33.5 30.064044 31.935956 28.5 30 28.5 z M 15.027344 29.537109 C 13.593229 29.763243 12.5 31.001212 12.5 32.5 C 12.5 34.159814 13.840186 35.5 15.5 35.5 C 16.149818 35.5 16.749637 35.292947 17.240234 34.943359 C 17.087973 34.661689 17 34.341461 17 34 C 17 33.826389 17.022547 33.658842 17.064453 33.498047 C 15.834309 32.815655 15 31.504214 15 30 C 15 29.843441 15.009454 29.688835 15.027344 29.537109 z M 19 32.5 C 18.168613 32.5 17.5 33.168613 17.5 34 C 17.5 34.831387 18.168613 35.5 19 35.5 C 19.660996 35.5 20.218921 35.077385 20.419922 34.486328 C 19.885405 33.937499 19.476949 33.266477 19.238281 32.519531 C 19.160503 32.507196 19.081371 32.5 19 32.5 z M 33.96875 32.5 C 33.852873 33.426665 33.420089 34.2566 32.78125 34.875 C 33.052939 35.253563 33.496134 35.5 34 35.5 C 34.831387 35.5 35.5 34.831387 35.5 34 C 35.5 33.168613 34.831387 32.5 34 32.5 C 33.989614 32.5 33.979084 32.499792 33.96875 32.5 z"/>
 <path style="opacity:0.1;fill:#d7d9ae" d="M 6,6 C 4.892,6 4,6.892 4,8 V 9 C 4,7.892 4.892,7 6,7 H 17 C 20,7 21,11 24,11 H 42 C 43.108,11 44,11.892 44,13 V 12 C 44,10.892 43.108,10 42,10 H 24 C 21,10 20,6 17,6 Z"/>
</svg>
